dist/img/1.svg

<svg width="35" height="35" viewBox="0 0 35 35" fill="none" xmlns="http://www.w3.org/2000/svg">
<path d="M17.5 0L19.9652 9.10444L26.9612 2.77806L24.1128 11.77L33.4186 10.2302L26.1609 16.2547L34.8219 19.9905L25.4593 21.1349L30.7256 28.9601L22.2306 24.861L22.4303 34.2911L17.5 26.25L12.5697 34.2911L12.7694 24.861L4.27438 28.9601L9.54072 21.1349L0.178125 19.9905L8.83906 16.2547L1.58144 10.2302L10.8872 11.77L8.03879 2.77806L15.0348 9.10444L17.5 0Z" fill="#598D66"/>
</svg>

<svg width="35" height="35" fill="none" xmlns="http://www.w3.org/2000/svg"><path d="M17.5 0l2.465 9.104 6.996-6.326-2.848 8.992 9.306-1.54-7.258 6.025 8.66 3.736-9.362 1.144 5.267 7.825-8.495-4.099.2 9.43L17.5 26.25l-4.93 8.041.2-9.43-8.496 4.1 5.267-7.826L.178 19.99l8.661-3.735-7.258-6.025 9.306 1.54L8.04 2.778l6.996 6.326L17.5 0z" fill="#598D66"/></svg>
